Sources/FrostedUI/Resources/Icons.xcassets/beaker16.imageset/beaker-16.svg

<svg width="16" height="16" viewBox="0 0 16 16" fill="none" xmlns="http://www.w3.org/2000/svg" data-fui-icon="true">
  <g clip-path="url(#clip0_6191_344)">
    <path
      d="M11.9998 0.5C12.414 0.5 12.7498 0.835786 12.7498 1.25C12.7498 1.66421 12.414 2 11.9998 2H10.9998V6.25586C10.9998 6.37268 11.0347 6.48733 11.1003 6.58398L14.9519 12.2451C15.8927 13.6281 14.9028 15.4996 13.2302 15.5H2.76929C1.09697 15.4994 0.107 13.628 1.04761 12.2451L4.89917 6.58398C4.96485 6.4873 4.99976 6.37275 4.99976 6.25586V2H3.99976C3.5857 1.99981 3.24976 1.6641 3.24976 1.25C3.24976 0.835904 3.5857 0.500191 3.99976 0.5H11.9998ZM5.8269 10.5322C5.27656 10.4303 4.61681 10.4813 3.72534 10.9746L2.28784 13.0889C2.02471 13.4759 2.30141 13.9994 2.76929 14H13.2302C13.6983 13.9996 13.975 13.476 13.7117 13.0889L12.5232 11.3418C11.6207 11.9037 10.7963 12.1268 10.0027 12.0908C9.07088 12.0484 8.28981 11.6491 7.64819 11.3076C6.96488 10.9439 6.43241 10.6445 5.8269 10.5322ZM6.49976 6.25586C6.49976 6.67387 6.37358 7.08214 6.13843 7.42773L5.06909 8.99902C5.42578 8.97303 5.76872 8.9952 6.10034 9.05664C6.98392 9.2205 7.74426 9.66071 8.35229 9.98438C9.00205 10.3302 9.51361 10.5664 10.071 10.5918C10.4906 10.6108 11.0051 10.5065 11.6775 10.0986L9.86108 7.42773C9.62601 7.08217 9.49976 6.6738 9.49976 6.25586V2H6.49976V6.25586Z"
      fill="currentColor"
    />
  </g>
  <defs>
    <clipPath id="clip0_6191_344"><path fill="currentColor" d="M0 0H16V16H0z" /></clipPath>
  </defs>
</svg>

<svg xmlns="http://www.w3.org/2000/svg" width="16" height="16" fill="none" data-fui-icon="true" viewBox="0 0 16 16"><g clip-path="url(#a)"><path fill="currentColor" d="M12 .5A.75.75 0 0 1 12 2h-1v4.256c0 .117.035.231.1.328l3.852 5.661c.94 1.383-.05 3.255-1.722 3.255H2.77c-1.673 0-2.663-1.872-1.722-3.255l3.851-5.661a.6.6 0 0 0 .1-.328V2H4A.75.75 0 0 1 4 .5zM5.827 10.532c-.55-.102-1.21-.05-2.102.443l-1.437 2.114a.583.583 0 0 0 .481.911H13.23a.583.583 0 0 0 .482-.911l-1.189-1.747c-.902.562-1.727.785-2.52.749-.932-.043-1.713-.442-2.355-.783-.683-.364-1.216-.663-1.821-.776M6.5 6.256c0 .418-.126.826-.362 1.172L5.07 8.999c.357-.026.7-.004 1.031.058.884.163 1.644.604 2.252.927.65.346 1.162.582 1.719.608.42.019.934-.085 1.607-.493L9.86 7.428A2.1 2.1 0 0 1 9.5 6.256V2h-3z"/></g><defs><clipPath id="a"><path fill="currentColor" d="M0 0h16v16H0z"/></clipPath></defs></svg>
